X:39
T:Haste To the Wedding
R:jig
M:6/8
L:1/8
K:D
AFA Agf | ede fdB | AFA AGF | GFG EFG |
AFA Agf | ede fdB | A2a faf | ded d3 ::
afa afa | bgb bgb | afa agf | gfg efg |
a3 f3 | ede fdB | A2a faf | ded d3 :|
